!!!OTL: WAIB SOLLST HAM GEHN
!!!ARE: Europa, Mitteleuropa, Oesterreich
!!!SCT: E0910B
!!!YEM: Copyright 1995, estate of Helmut Schaffrath.
**kern
*ICvox
*Ivox
!! Mixed meters:  2/4; 3/8
*M3/8
*k[f#]
*G:
=1
{4d
8d
8d
=2
4d
8d
8d
=3
4e
8d
8c#
=4
4.d
8r}
=5
{4dd
16b
16g
=6
4f#
16a
16b
=7
4cc
16a
16f#
=8
4g}
{16b
16cc
=9
4dd
16b
16g
=10
4f#
16a
16b
=11
4cc
16a
16f#
=12
4g
8r}
=13
{8g
8a
8b
=14
8cc
8dd
8ee
=15
4dd
8ff#
=16
4gg
8r}
=17
{8g
8a
8b
=18
8cc
8dd
8ee
=19
4dd
8f#
=20
4g
8r}
==
!!!AGN: Ehestands - Lied
!!!ONB: ESAC (Essen Associative Code) Database: ERK2
!!!AMT: irregular
!!!AIN: vox
!!!EED: Helmut Schaffrath
!!!EEV: 1.0
*-
